!!!OTL: Neujahrslied, (Band 1), S. 13
!!!id: P0776
**kern
*clefG2
*k[]
*F:
{4c
=1
4f
4f
4c
=2
4f
4f
4a
=3
2a
4cc
=4
2a}
=5
{4a
=6
4a
4g
4g
=7
4g
4f
8e
8e
=8
2d
4d
=9
2c}
=10
{8c
8c
=11
4f
4f
8c
8c
=12
4f
4f
4a
=13
4a
4a
4cc
=14
2f}
=15
{8a
8a
=16
4a
4g
4g
=17
4g
4f
4e
=18
4d
4e
4d
=19
2c}
=20
{4c
=21
4f
4f
4c
=22
4f
4g
4a
=23
8c
8c
8d
8d
8e
8e
=24
2f}
==
*-
!!!minrhy: 8
!!!meters: 3/4 ]  ZZ[5
!!!cut: Neujahrslied, (Band 1), S. 13
!!!reg: Lothringen
!!!trd: PINCK, Louis: Verklingende Weisen, Bd 1, Metz 1928
!!!rhy1: X_  X_X_X_  X_X_X_  X__X_  X__
!!!rhy2: X_  X_X_X_  X_X_XX  X__X_  X__
!!!key: P0776  08  F 3/4 ]  ZZ[5
!!!mod: SECHSTONSKALA DUR ?]  AMBITUS[8
!!!kad: 3-51-51
!!!akz: 1133_32-6-5_1131_32-6-5_11-51_
!!!fot: 'a__b__aw_bv_c__
!!!for: 'a__b__c__d__e__
!!!fok: '^a_\__^a_\__/__
!! PHRAS[AUFTAKTIG]
!!!fkt: geistliche, religiöse Lieder
!! LOTH VKL
!! PR[9] 2K[9] 2G[22] 3K[2] 3G[0] 4A[4] 4Ü[0] 5A[2] 6K[0] 6G[0]
!! 7K[0] 7G[0] 8A[0] MEHR[0] SI[39] ABS[46] SR[30] SP[9]
!! ST[8] 2k[11] 2g[35] 3k[4] 3g[0] 4d[2] 4ü[0] 5d[0] 6k[0] 6g[0]
!! 7k[0] 7g[0] 8d[0] mehr[0] si[52] dm[-13] sr[46] sp[7]
!! 1F[4] 2F[66] 3F[24] 4F[0] LF[0] 2P[4] 3P[2] 4P[0] TRI[0] DF[5] AB[50]
!! TF[0] U3K[0] U3[0] U4[0] U4Ü[0] U5[0] U6K[0] U6[0] U7K[0] U7[0]
!! N1[6] N2K[0] N2[17] N3K[0] N3[23] N4[21] N4Ü[0] N5[28] N6K[0] N6[2]
!!!n7k: 0] N7[0] O1[2] O2K[0] O2[0] O3K[0] O3[0] HÖ[0
